X:547
T:Rocking the Cradle
M:6/8
L:1/8
Q:80
B:O'Neill's 547
N:"Slow" "collected by F. O'Neill"
Z:Transcribed by Dave Wooldridge
K:D
(D/2E/2) \
| (.F.F)F (.G.G)(A/2G/2) | .F(FD) (ED)(D/2E/2) | (.F.F).F (GA).G | (ED).D D2 :|
|| (A/2B/2) \
| (=c>dc) (B>^cd) | .A(A/2B/2A/2G/2) (FD).D | (=c>dc) (BA).F | A>B^c d2d |
| (d>ef) (d>ef) | .A(A/2B/2A/2G/2) (FD)(D/2E/2) | (F/2G/2F/2E/2D/2F/2) (EA).G | (ED).D D2 |]


